_includes/logos/Bibliotheque_nationale_du_Luxembourg.svg

<svg width="var(--footer-logo-size)" height="89" viewBox="0 0 200 89" fill="none" xmlns="http://www.w3.org/2000/svg">
<g clip-path="url(#clip0_36_1051)">
<path d="M35.6798 30.5689H29.4118V21.1186C29.4118 19.5757 28.1581 18.3221 26.6152 18.3221H23.8187V30.5689H17.6471V12.5362H26.6152C31.4368 12.3433 35.3906 16.1041 35.5834 20.9257C35.5834 21.0222 35.5834 21.1186 35.5834 21.1186V30.5689H35.6798ZM34.2334 71.8419H17.7435V65.8631V53.3269H23.9151V65.8631H34.2334V71.8419ZM45.0338 41.8515C49.0839 40.5979 50.6268 39.6336 53.2305 37.2228C57.1842 33.269 59.3057 27.8689 59.2093 22.2758C59.4021 16.1041 56.702 10.3182 51.8804 6.36451C46.5767 1.63934 40.8872 0 30.0868 0H0V89.0068H28.0617C32.8833 89.0068 36.6442 88.9103 39.4407 88.7175C55.0627 87.6567 62.6808 76.4706 62.6808 64.1273C62.6808 52.5554 56.8949 45.4195 45.0338 41.8515Z" fill="var(--bs-dark)"/>
<path d="M159.691 72.324C160.174 72.324 160.27 72.4204 160.27 72.7097C160.27 73.0954 159.788 73.2883 159.016 73.2883C158.052 73.2883 157.57 73.0954 157.57 72.8061C157.57 72.5168 157.763 72.4204 157.859 72.2275L159.691 72.324ZM161.909 64.7058C161.331 64.7058 160.849 64.9951 160.559 65.4773C160.077 64.9951 159.402 64.7058 158.727 64.7058C156.895 64.7058 156.413 65.863 156.413 67.3095C156.316 68.2738 156.702 69.1417 157.473 69.7203C157.088 69.9132 156.509 70.2989 156.509 70.8775C156.509 71.2632 156.798 71.649 157.184 71.8418C156.798 72.1311 156.22 72.4204 156.22 72.9026C156.22 73.674 157.184 74.1562 158.824 74.1562C160.656 74.1562 161.909 73.5776 161.909 72.4204C161.909 69.9132 157.859 71.2632 157.859 70.3953C157.859 70.2025 158.052 70.106 158.148 70.0096C158.341 70.106 158.631 70.106 158.824 70.106C160.366 70.106 161.138 69.1417 161.138 67.4059C161.138 67.0202 161.041 66.5381 160.945 66.1523C161.138 66.0559 161.331 66.0559 161.524 65.9595C161.716 65.9595 161.813 66.0559 162.006 66.0559L161.909 64.7058ZM159.499 67.4059C159.499 68.6596 159.306 68.8524 158.631 68.8524C158.148 68.8524 157.859 68.4667 157.859 67.5024C157.859 66.4416 158.052 65.9595 158.727 65.9595C159.209 66.0559 159.499 66.4416 159.499 67.4059ZM153.616 71.8418V67.1166C153.616 66.7309 153.905 66.3452 154.388 66.3452C154.677 66.3452 154.966 66.4416 155.256 66.5381V64.8023C154.581 64.8023 153.905 65.188 153.616 65.863V64.8987H152.073V71.8418H153.616ZM148.891 64.8987V70.106C148.602 70.3953 148.216 70.6846 147.83 70.6846C147.445 70.6846 147.252 70.3953 147.252 69.9132V64.8023H145.612V70.106C145.612 71.3597 146.094 71.9382 147.059 71.9382C147.734 71.8418 148.409 71.5525 148.891 70.9739V71.7454H150.434V64.8023L148.891 64.8987ZM140.791 66.9238C140.791 66.3452 141.176 66.1523 141.755 66.1523C142.334 66.1523 142.719 66.4416 142.719 66.9238V69.7203C142.719 70.2989 142.334 70.4918 141.755 70.4918C141.176 70.4918 140.791 70.2025 140.791 69.7203V66.9238ZM139.151 69.3346C139.151 71.1668 140.116 71.9382 141.659 71.9382C143.202 71.9382 144.166 71.1668 144.166 69.3346V67.4059C144.166 65.5737 143.202 64.8023 141.659 64.8023C140.116 64.8023 139.151 65.5737 139.151 67.4059V69.3346ZM134.33 71.8418V70.9739C134.716 71.5525 135.391 71.9382 136.066 71.9382C137.319 71.9382 137.801 70.9739 137.801 69.1417V67.4059C137.801 65.5737 137.319 64.6094 136.066 64.6094C135.487 64.7058 134.908 64.9951 134.426 65.3809V62.4879H132.787V71.7454H134.33V71.8418ZM134.523 66.4416C134.716 66.1523 135.101 65.9595 135.487 65.9595C135.873 65.9595 136.258 66.2488 136.258 67.5988V69.0453C136.258 70.3953 135.873 70.6846 135.487 70.6846C135.101 70.6846 134.716 70.4918 134.523 70.2025V66.4416ZM123.722 71.8418H125.362V66.5381C125.554 66.2488 125.94 65.9595 126.326 65.9595C126.615 65.9595 126.712 66.0559 126.712 66.5381V71.8418H128.351V66.5381C128.64 66.2488 128.93 65.9595 129.315 65.9595C129.605 65.9595 129.701 66.0559 129.701 66.5381V71.8418H131.34V66.6345C131.34 65.3809 130.858 64.8023 129.894 64.8023C129.219 64.8987 128.544 65.2844 128.158 65.863C128.062 65.2844 127.58 64.8023 126.905 64.8023C126.229 64.8987 125.651 65.188 125.169 65.7666V64.9951H123.626L123.722 71.8418ZM118.804 67.4059V67.0202C118.804 66.4416 119.094 66.0559 119.769 66.0559C120.444 66.0559 120.733 66.4416 120.733 67.0202V67.4059H118.804ZM122.276 68.756V67.1166C122.179 65.6702 120.926 64.7058 119.576 64.7058C118.226 64.8023 117.261 65.863 117.165 67.2131V69.5274C117.068 70.7811 118.033 71.9382 119.383 72.0347C119.479 72.0347 119.576 72.0347 119.672 72.0347C120.926 72.2275 121.986 71.3597 122.179 70.106C122.179 70.0096 122.179 69.9132 122.179 69.7203H120.54C120.636 70.2025 120.251 70.5882 119.769 70.6846C119.672 70.6846 119.672 70.6846 119.576 70.6846C119.094 70.6846 118.708 70.3953 118.611 69.8167C118.611 69.7203 118.611 69.7203 118.611 69.6239V68.6596L122.276 68.756ZM112.922 68.2738L110.993 71.8418H112.729L113.79 69.6239L114.851 71.8418H116.586L114.754 68.2738L116.49 64.8987H114.754L113.79 66.9238L112.922 64.8987H111.186L112.922 68.2738ZM108.293 64.8987V70.106C107.907 70.3953 107.618 70.6846 107.232 70.6846C106.847 70.6846 106.654 70.3953 106.654 69.9132V64.8023H105.014V70.106C105.014 71.3597 105.497 71.9382 106.461 71.9382C107.136 71.8418 107.811 71.5525 108.293 70.9739V71.7454H109.836V64.8023L108.293 64.8987ZM103.857 71.8418V70.2989H101.061V62.5843H99.325V71.8418H103.857ZM87.8495 71.8418V62.5843H86.2102V65.4773C85.728 65.0916 85.2459 64.8023 84.5709 64.7058C83.3172 64.7058 82.8351 65.6702 82.8351 67.5024V69.1417C82.8351 70.9739 83.3172 71.9382 84.5709 71.9382C85.2459 71.8418 85.9209 71.5525 86.3066 70.9739V71.8418H87.8495ZM86.3066 70.2025C86.1138 70.4918 85.728 70.6846 85.3423 70.6846C84.9566 70.6846 84.5709 70.3953 84.5709 69.0453V67.5988C84.5709 66.2488 84.9566 65.9595 85.3423 65.9595C85.728 65.9595 86.1138 66.1523 86.3066 66.4416V70.2025Z" fill="var(--bs-dark)"/>
<path d="M196.528 52.0733V51.6876C196.528 51.109 196.818 50.7232 197.493 50.7232C198.168 50.7232 198.457 51.109 198.457 51.6876V52.0733H196.528ZM200 53.3269V51.784C199.904 50.3375 198.65 49.3732 197.3 49.3732C195.95 49.4696 194.986 50.5304 194.889 51.8804V54.1948C194.793 55.4484 195.757 56.6056 197.107 56.702C197.203 56.702 197.3 56.702 197.396 56.702C198.65 56.8949 199.711 56.027 199.904 54.7734C199.904 54.677 199.904 54.5805 199.904 54.3877H198.264C198.361 54.8698 197.975 55.2555 197.493 55.352C197.396 55.352 197.396 55.352 197.3 55.352C196.818 55.352 196.432 55.0627 196.336 54.4841C196.336 54.3877 196.336 54.3877 196.336 54.2912V53.3269H200ZM191.803 56.4127H193.443V47.1553H191.803V56.4127ZM188.525 54.7734C188.235 55.1591 187.753 55.352 187.271 55.4484C186.885 55.4484 186.596 55.1591 186.596 54.8698V54.7734C186.596 54.0019 187.56 53.5198 188.525 53.134V54.7734ZM186.789 51.4947C186.789 51.0125 187.175 50.6268 187.657 50.6268C188.042 50.6268 188.428 50.9161 188.525 51.3018C188.525 51.3983 188.525 51.3983 188.525 51.4947V51.9769C186.5 52.5555 185.053 53.2305 185.053 54.8698C184.957 55.6413 185.535 56.4127 186.307 56.5092C186.403 56.5092 186.5 56.5092 186.596 56.5092C187.271 56.5092 188.042 56.2199 188.525 55.7377C188.621 56.027 188.621 56.2199 188.621 56.4127H190.26C190.164 56.2199 190.164 56.027 190.164 55.8341V51.3983C190.164 50.1447 189.489 49.2768 187.85 49.2768C187.271 49.2768 186.596 49.4696 186.114 49.7589C185.632 50.1447 185.246 50.7232 185.246 51.3983L186.789 51.4947ZM180.521 56.4127V51.109C180.906 50.8197 181.196 50.5304 181.581 50.5304C181.967 50.5304 182.16 50.8197 182.16 51.3018V56.4127H183.799V51.109C183.799 49.8554 183.317 49.2768 182.353 49.2768C181.678 49.3732 181.003 49.6625 180.521 50.2411V49.4696H178.978V56.4127H180.521ZM173.963 51.5911C173.963 51.0125 174.349 50.8197 174.928 50.8197C175.506 50.8197 175.892 51.109 175.892 51.5911V54.3877C175.892 54.9663 175.506 55.2555 174.928 55.2555C174.349 55.2555 173.963 54.9663 173.963 54.3877V51.5911ZM172.42 53.9055C172.42 55.7377 173.385 56.5092 174.928 56.5092C176.471 56.5092 177.435 55.7377 177.435 53.9055V51.9769C177.435 50.1447 176.471 49.3732 174.928 49.3732C173.385 49.3732 172.42 50.1447 172.42 51.9769V53.9055ZM170.781 46.866H169.142V48.3124H170.781V46.866ZM169.238 56.4127H170.878V49.4696H169.238V56.4127ZM165.381 51.109V55.1591C165.381 56.1234 166.056 56.5092 167.117 56.5092C167.406 56.5092 167.695 56.5092 167.985 56.4127V55.0627C167.888 55.0627 167.792 55.0627 167.695 55.0627C167.31 55.0627 166.924 54.8698 166.924 54.5805V51.0125H167.985V49.6625H166.924V47.7339H165.284V49.6625H164.609V51.0125L165.381 51.109ZM162.006 54.7734C161.716 55.1591 161.234 55.352 160.752 55.4484C160.366 55.4484 160.077 55.1591 160.077 54.8698V54.7734C160.077 54.0019 161.041 53.5198 162.006 53.134V54.7734ZM160.27 51.4947C160.27 51.0125 160.656 50.6268 161.138 50.6268C161.524 50.6268 161.909 50.9161 162.006 51.3018C162.006 51.3983 162.006 51.3983 162.006 51.4947V51.9769C159.981 52.5555 158.534 53.2305 158.534 54.8698C158.438 55.6413 159.016 56.4127 159.788 56.5092C159.884 56.5092 159.981 56.5092 160.077 56.5092C160.752 56.5092 161.524 56.2199 162.006 55.7377C162.102 56.027 162.102 56.2199 162.102 56.4127H163.742C163.645 56.2199 163.645 56.027 163.645 55.8341V51.3983C163.645 50.1447 162.97 49.2768 161.331 49.2768C160.752 49.2768 160.077 49.4696 159.595 49.7589C159.113 50.1447 158.727 50.7232 158.727 51.3983L160.27 51.4947ZM154.002 56.4127V51.109C154.388 50.8197 154.677 50.5304 155.063 50.5304C155.448 50.5304 155.641 50.8197 155.641 51.3018V56.4127H157.281V51.109C157.281 49.8554 156.798 49.2768 155.834 49.2768C155.159 49.3732 154.484 49.6625 154.002 50.2411V49.4696H152.459V56.4127H154.002ZM143.973 52.0733V51.6876C143.973 51.109 144.262 50.7232 144.937 50.7232C145.612 50.7232 145.902 51.109 145.902 51.6876V52.0733H143.973ZM147.445 53.3269V51.784C147.348 50.3375 146.095 49.3732 144.744 49.3732C143.394 49.4696 142.43 50.5304 142.334 51.8804V54.1948C142.237 55.4484 143.202 56.6056 144.552 56.702C144.648 56.702 144.744 56.702 144.841 56.702C146.094 56.8949 147.155 56.027 147.348 54.7734C147.348 54.677 147.348 54.5805 147.348 54.3877H145.805C145.902 54.8698 145.516 55.2555 145.034 55.352C144.937 55.352 144.937 55.352 144.841 55.352C144.359 55.352 143.973 55.0627 143.877 54.4841C143.877 54.3877 143.877 54.3877 143.877 54.2912V53.3269H147.445ZM139.344 49.4696V54.7734C138.959 55.0627 138.669 55.4484 138.283 55.4484C137.898 55.4484 137.705 55.1591 137.705 54.677V49.5661H136.066V54.8698C136.066 56.1234 136.548 56.702 137.512 56.702C138.187 56.6056 138.862 56.3163 139.344 55.7377V56.5092H140.887V49.5661H139.344V49.4696ZM133.076 49.4696V50.3375C132.69 49.7589 132.015 49.3732 131.34 49.3732C130.087 49.3732 129.605 50.3375 129.605 52.1697V53.9055C129.605 55.7377 130.087 56.702 131.34 56.702C131.919 56.6056 132.498 56.3163 132.98 55.9306V59.0164H134.619V49.5661L133.076 49.4696ZM132.98 54.8698C132.787 55.1591 132.401 55.352 132.015 55.352C131.63 55.352 131.244 55.0627 131.244 53.7126V52.2662C131.244 50.9161 131.63 50.6268 132.015 50.6268C132.401 50.6268 132.787 50.8197 132.98 51.109V54.8698ZM123.722 46.7695L125.554 48.6017H126.808L125.651 46.7695H123.722ZM124.783 52.0733V51.6876C124.783 51.109 125.072 50.7232 125.747 50.7232C126.422 50.7232 126.712 51.109 126.712 51.6876V52.0733H124.783ZM128.255 53.3269V51.784C128.158 50.3375 126.905 49.3732 125.554 49.4696C124.301 49.5661 123.24 50.6268 123.24 51.8804V54.1948C123.144 55.4484 124.108 56.6056 125.458 56.702C125.554 56.702 125.651 56.702 125.747 56.702C127.001 56.8949 128.062 56.027 128.255 54.7734C128.255 54.677 128.255 54.5805 128.255 54.3877H126.615C126.712 54.8698 126.326 55.2555 125.844 55.352C125.747 55.352 125.747 55.352 125.651 55.352C125.169 55.352 124.783 55.0627 124.687 54.4841C124.687 54.3877 124.687 54.3877 124.687 54.2912V53.3269H128.255ZM118.515 56.5092V51.2054C118.901 50.9161 119.19 50.6268 119.576 50.6268C119.961 50.6268 120.154 50.9161 120.154 51.3983V56.5092H121.794V51.2054C121.794 49.9518 121.311 49.3732 120.347 49.3732C119.672 49.4696 119.094 49.7589 118.611 50.3375V47.2517H116.972V56.5092H118.515ZM113.211 51.109V55.1591C113.211 56.1234 113.886 56.5092 114.947 56.5092C115.236 56.5092 115.526 56.5092 115.815 56.4127V55.0627C115.718 55.0627 115.622 55.0627 115.526 55.0627C115.14 55.0627 114.851 54.8698 114.851 54.5805V51.0125H115.911V49.6625H114.851V47.7339H113.211V49.6625H112.536V51.0125L113.211 51.109ZM108.004 51.5911C108.004 51.0125 108.39 50.8197 108.968 50.8197C109.547 50.8197 109.932 51.109 109.932 51.5911V54.3877C109.932 54.9663 109.547 55.2555 108.968 55.2555C108.39 55.2555 108.004 54.9663 108.004 54.3877V51.5911ZM106.461 53.9055C106.461 55.7377 107.425 56.5092 108.968 56.5092C110.511 56.5092 111.475 55.7377 111.475 53.9055V51.9769C111.475 50.1447 110.511 49.3732 108.968 49.3732C107.425 49.3732 106.461 50.1447 106.461 51.9769V53.9055ZM104.918 46.866H103.279V48.3124H104.918V46.866ZM103.279 56.4127H104.918V49.4696H103.279V56.4127ZM100 56.4127H101.639V47.1553H100V56.4127ZM94.8891 56.4127V55.6413C95.2748 56.2199 95.9498 56.6056 96.6249 56.6056C97.8785 56.6056 98.3606 55.6413 98.3606 53.8091V52.0733C98.3606 50.2411 97.8785 49.2768 96.6249 49.2768C96.0463 49.3732 95.4677 49.6625 94.9855 50.0482V47.1553H93.3462V56.4127H94.8891ZM95.082 51.109C95.2748 50.8197 95.6605 50.6268 96.0463 50.6268C96.432 50.6268 96.8177 50.9161 96.8177 52.2662V53.7126C96.8177 55.0627 96.432 55.352 96.0463 55.352C95.6605 55.352 95.2748 55.1591 95.082 54.8698V51.109ZM91.8033 46.866H90.1639V48.3124H91.8033V46.866ZM90.1639 56.4127H91.8033V49.4696H90.1639V56.4127ZM84.8602 48.6982H85.5352C86.4031 48.6982 86.7888 49.1803 86.7888 49.8554C86.7888 50.5304 86.2102 51.0125 85.5352 50.9161H85.4388H84.8602V48.6982ZM84.8602 52.3626H85.4388C86.3066 52.3626 86.9817 52.8447 86.9817 53.7126C87.0781 54.3877 86.4995 54.9663 85.8245 55.0627C85.7281 55.0627 85.6316 55.0627 85.5352 55.0627H84.7637V52.3626H84.8602ZM83.028 56.5092H85.6316C87.4638 56.5092 88.7174 55.6413 88.7174 53.8091C88.8139 52.8447 88.2353 51.9769 87.3674 51.4947C88.0424 51.109 88.5246 50.3375 88.5246 49.5661C88.5246 48.0231 87.4638 47.1553 85.5352 47.1553H83.028V56.5092Z" fill="var(--bs-dark)"/>
<path d="M92.5747 64.8987V70.106C92.189 70.3953 91.8997 70.6846 91.514 70.6846C91.1282 70.6846 90.9354 70.3953 90.9354 69.9131V64.8022H89.296V70.106C89.296 71.3596 89.7782 71.9382 90.7425 71.9382C91.4175 71.8418 92.0926 71.5525 92.5747 70.9739V71.7454H94.1176V64.8022L92.5747 64.8987Z" fill="var(--bs-dark)"/>
</g>
<defs>
<clipPath id="clip0_36_1051">
<rect width="200" height="89.0068" fill="white"/>
</clipPath>
</defs>
</svg>

<svg id="BNL-logo" xmlns="http://www.w3.org/2000/svg" viewBox="0 0 200 89.01">
  <path id="BNL" d="m45.03,41.85c4.05-1.25,5.59-2.22,8.2-4.63,3.95-3.95,6.08-9.35,5.98-14.95.19-6.17-2.51-11.96-7.33-15.91C46.58,1.64,40.89,0,30.09,0H0v89.01h28.06c4.82,0,8.58-.1,11.38-.29,15.62-1.06,23.24-12.25,23.24-24.59,0-11.57-5.79-18.71-17.65-22.28Zm-10.8,29.99h-16.49v-18.52h6.17v12.54h10.32v5.98Zm1.35-50.72v9.45h-6.17v-9.45c0-1.54-1.25-2.8-2.8-2.8h-2.8v12.25h-6.17V12.54h8.97c4.82-.19,8.78,3.57,8.97,8.39v.19Zm65.48,41.47h-1.74v9.26h4.53v-1.54h-2.8v-7.71Zm36.45-5.88c.67-.1,1.35-.39,1.83-.96v.77h1.54v-6.94h-1.54v5.21c-.39.29-.67.68-1.06.68s-.58-.29-.58-.77v-5.11h-1.64v5.3c0,1.25.48,1.83,1.45,1.83Zm-45.71-7.23h-1.64v6.94h1.64v-6.94Zm11.48,6.94h1.64v-6.94h-1.64v6.94Zm5.01,13.69c-.39.29-.68.58-1.06.58s-.58-.29-.58-.77v-5.11h-1.64v5.3c0,1.25.48,1.83,1.45,1.83.67-.1,1.35-.39,1.83-.96v.77h1.54v-6.94l-1.54.1v5.21Zm-5.01-21.79h1.64v-1.45h-1.64v1.45Zm-6.65.96c-.58.1-1.16.39-1.64.77v-2.89h-1.64v9.26h1.54v-.77c.39.58,1.06.96,1.74.96,1.25,0,1.74-.96,1.74-2.8v-1.74c0-1.83-.48-2.8-1.74-2.8Zm.19,4.44c0,1.35-.39,1.64-.77,1.64s-.77-.19-.96-.48v-3.76c.19-.29.58-.48.96-.48s.77.29.77,1.64v1.45Zm-5.01-6.85h-1.64v1.45h1.64v-1.45Zm-4.44,4.63c.67-.39,1.16-1.16,1.16-1.93,0-1.54-1.06-2.41-2.99-2.41h-2.51v9.35h2.6c1.83,0,3.09-.87,3.09-2.7.1-.96-.48-1.83-1.35-2.31Zm-2.51-2.8h.67c.87,0,1.25.48,1.25,1.16s-.58,1.16-1.25,1.06h-.67v-2.22Zm.96,6.36h-1.06v-2.7h.68c.87,0,1.54.48,1.54,1.35.1.68-.48,1.25-1.16,1.35Zm15.81-7.91h-1.64v9.26h1.64v-9.26Zm11.57,8c0,.96.67,1.35,1.74,1.35.29,0,.58,0,.87-.1v-1.35h-.29c-.39,0-.67-.19-.67-.48v-3.57h1.06v-1.35h-1.06v-1.93h-1.64v1.93h-.67v1.35l.67.1v4.05Zm-27,10.32c-.48-.39-.96-.67-1.64-.77-1.25,0-1.74.96-1.74,2.8v1.64c0,1.83.48,2.8,1.74,2.8.67-.1,1.35-.39,1.74-.96v.87h1.54v-9.26h-1.64v2.89Zm.1,4.73c-.19.29-.58.48-.96.48s-.77-.29-.77-1.64v-1.45c0-1.35.39-1.64.77-1.64s.77.19.96.48v3.76Zm40.5-21.6l-1.16-1.83h-1.93l1.83,1.83h1.25Zm-34.23,21.5c-.39.29-.67.58-1.06.58s-.58-.29-.58-.77v-5.11h-1.64v5.3c0,1.25.48,1.83,1.45,1.83.68-.1,1.35-.39,1.83-.96v.77h1.54v-6.94l-1.54.1v5.21Zm49.08-5.3c-1.54,0-2.51.77-2.51,2.6v1.93c0,1.83.97,2.6,2.51,2.6s2.51-.77,2.51-2.6v-1.93c0-1.83-.96-2.6-2.51-2.6Zm1.06,4.92c0,.58-.39.77-.96.77s-.96-.29-.96-.77v-2.8c0-.58.39-.77.96-.77s.96.29.96.77v2.8Zm28.06-22.85h-1.64v1.45h1.64v-1.45Zm-3.86.87h-1.64v1.93h-.67v1.35l.77.1v4.05c0,.96.68,1.35,1.74,1.35.29,0,.58,0,.87-.1v-1.35h-.29c-.39,0-.77-.19-.77-.48v-3.57h1.06v-1.35h-1.06v-1.93Zm2.31,8.68h1.64v-6.94h-1.64v6.94Zm-5.59-5.01c0-1.25-.67-2.12-2.31-2.12-.58,0-1.25.19-1.74.48-.48.39-.87.96-.87,1.64l1.54.1c0-.48.39-.87.87-.87.39,0,.77.29.87.68v.68c-2.02.58-3.47,1.25-3.47,2.89-.1.77.48,1.54,1.25,1.64h.29c.67,0,1.45-.29,1.93-.77.1.29.1.48.1.68h1.64c-.1-.19-.1-.39-.1-.58v-4.44Zm-1.64,3.38c-.29.39-.77.58-1.25.68-.39,0-.67-.29-.67-.58v-.1c0-.77.96-1.25,1.93-1.64v1.64Zm0,11.28l-.1-1.35c-.58,0-1.06.29-1.35.77-.48-.48-1.16-.77-1.83-.77-1.83,0-2.31,1.16-2.31,2.6-.1.96.29,1.83,1.06,2.41-.39.19-.96.58-.96,1.16,0,.39.29.77.67.96-.39.29-.96.58-.96,1.06,0,.77.96,1.25,2.6,1.25,1.83,0,3.08-.58,3.08-1.74,0-2.51-4.05-1.16-4.05-2.03,0-.19.19-.29.29-.39.19.1.48.1.68.1,1.54,0,2.31-.96,2.31-2.7,0-.39-.1-.87-.19-1.25.19-.1.39-.1.58-.19.19,0,.29.1.48.1Zm-2.32,6.27c.48,0,.58.1.58.39,0,.39-.48.58-1.25.58-.96,0-1.45-.19-1.45-.48s.19-.39.29-.58l1.83.1Zm-1.06-3.47c-.48,0-.77-.39-.77-1.35,0-1.06.19-1.54.87-1.54.48.1.77.48.77,1.45,0,1.25-.19,1.45-.87,1.45Zm37.71-15.53h3.66v-1.54c-.1-1.45-1.35-2.41-2.7-2.41-1.35.1-2.31,1.16-2.41,2.51v2.31c-.1,1.25.87,2.41,2.22,2.51h.29c1.25.19,2.32-.68,2.51-1.93v-.39h-1.64c.1.48-.29.87-.77.96h-.19c-.48,0-.87-.29-.96-.87v-1.16Zm.19-1.64c0-.58.29-.96.96-.96s.96.39.96.96v.39h-1.93v-.39Zm-4.73,4.73h1.64v-9.26h-1.64v9.26Zm-34.52,0v-5.3c0-1.25-.48-1.83-1.45-1.83-.67.1-1.35.39-1.83.96v-.77h-1.54v6.94h1.54v-5.3c.39-.29.67-.58,1.06-.58s.58.29.58.77v5.11h1.64Zm17.65-7.04c-1.54,0-2.51.77-2.51,2.6v1.93c0,1.83.97,2.6,2.51,2.6s2.51-.77,2.51-2.6v-1.93c0-1.83-.96-2.6-2.51-2.6Zm.96,5.01c0,.58-.39.87-.96.87s-.96-.29-.96-.87v-2.8c0-.58.39-.77.96-.77s.96.29.96.77v2.8Zm14.27-2.99c0-1.25-.67-2.12-2.31-2.12-.58,0-1.25.19-1.74.48-.48.39-.87.96-.87,1.64l1.54.1c0-.48.39-.87.87-.87.39,0,.77.29.87.68v.68c-2.03.58-3.47,1.25-3.47,2.89-.1.77.48,1.54,1.25,1.64h.29c.67,0,1.45-.29,1.93-.77.1.29.1.48.1.68h1.64c-.1-.19-.1-.39-.1-.58v-4.44Zm-1.64,3.38c-.29.39-.77.58-1.25.68-.39,0-.67-.29-.67-.58v-.1c0-.77.96-1.25,1.93-1.64v1.64Zm-6.17-5.5c-.68.1-1.35.39-1.83.96v-.77h-1.54v6.94h1.54v-5.3c.39-.29.67-.58,1.06-.58s.58.29.58.77v5.11h1.64v-5.3c0-1.25-.48-1.83-1.45-1.83Zm-33.46,20.83c-.29.29-.67.58-1.06.58s-.58-.29-.58-.77v-5.11h-1.64v5.3c0,1.25.48,1.83,1.45,1.83.67-.1,1.35-.39,1.83-.96v.77h1.54v-6.94l-1.54.1v5.21Zm-29.32-5.4c-1.35.1-2.32,1.16-2.41,2.51v2.31c-.1,1.25.87,2.41,2.22,2.51h.29c1.25.19,2.31-.67,2.51-1.93v-.39h-1.64c.1.48-.29.87-.77.96h-.19c-.48,0-.87-.29-.96-.87v-1.16l3.66.1v-1.64c-.1-1.45-1.35-2.41-2.7-2.41Zm1.16,2.7h-1.93v-.39c0-.58.29-.96.96-.96s.96.39.96.96v.39Zm4.72-10.7h.29c1.25.19,2.32-.68,2.51-1.93v-.39h-1.64c.1.48-.29.87-.77.96h-.19c-.48,0-.87-.29-.96-.87v-1.16h3.57v-1.54c-.1-1.45-1.35-2.41-2.7-2.31-1.25.1-2.31,1.16-2.31,2.41v2.31c-.1,1.25.87,2.41,2.22,2.51Zm-.67-5.01c0-.58.29-.96.96-.96s.96.39.96.96v.39h-1.93v-.39Zm-6.27-.48c.39-.29.67-.58,1.06-.58s.58.29.58.77v5.11h1.64v-5.3c0-1.25-.48-1.83-1.45-1.83-.67.1-1.25.39-1.74.96v-3.09h-1.64v9.26h1.54v-5.3Zm11.38,13.6c-.67.1-1.35.48-1.74,1.06-.1-.58-.58-1.06-1.25-1.06-.68.1-1.25.39-1.74.96v-.77h-1.54l.1,6.85h1.64v-5.3c.19-.29.58-.58.96-.58.29,0,.39.1.39.58v5.3h1.64v-5.3c.29-.29.58-.58.96-.58.29,0,.39.1.39.58v5.3h1.64v-5.21c0-1.25-.48-1.83-1.45-1.83Zm-13.4.1h-1.74l-.96,2.03-.87-2.03h-1.74l1.74,3.38-1.93,3.57h1.74l1.06-2.22,1.06,2.22h1.73l-1.83-3.57,1.74-3.38Zm19.58-.29c-.58.1-1.16.39-1.64.77v-2.89h-1.64v9.26h1.54v-.77c.39.58,1.06.96,1.74.96,1.25,0,1.74-.96,1.74-2.8v-1.74c0-1.83-.48-2.8-1.74-2.8Zm.19,4.44c0,1.35-.39,1.64-.77,1.64s-.77-.19-.96-.48v-3.76c.19-.29.58-.48.96-.48s.77.29.77,1.64v1.45Zm-3.28-10.03h1.64v-9.45l-1.54-.1v.87c-.39-.58-1.06-.96-1.74-.96-1.25,0-1.74.96-1.74,2.8v1.74c0,1.83.48,2.8,1.74,2.8.58-.1,1.16-.39,1.64-.77v3.09Zm-.96-3.66c-.39,0-.77-.29-.77-1.64v-1.45c0-1.35.39-1.64.77-1.64s.77.19.96.48v3.76c-.19.29-.58.48-.96.48Zm15.33-.58v-.39h-1.54c.1.48-.29.87-.77.96h-.19c-.48,0-.87-.29-.96-.87v-1.16h3.57v-1.54c-.1-1.45-1.35-2.41-2.7-2.41-1.35.1-2.31,1.16-2.41,2.51v2.31c-.1,1.25.87,2.41,2.22,2.51h.29c1.25.19,2.31-.68,2.51-1.93Zm-3.38-3.09c0-.58.29-.96.96-.96s.96.39.96.96v.39h-1.93v-.39Zm-32.5.29c0-1.83-.96-2.6-2.51-2.6s-2.51.77-2.51,2.6v1.93c0,1.83.96,2.6,2.51,2.6s2.51-.77,2.51-2.6v-1.93Zm-1.54,2.41c0,.58-.39.87-.96.87s-.96-.29-.96-.87v-2.8c0-.58.39-.77.96-.77s.96.29.96.77v2.8Zm43.68,11.48v-.96h-1.54v6.94h1.54v-4.73c0-.39.29-.77.77-.77.29,0,.58.1.87.19v-1.74c-.67,0-1.35.39-1.64,1.06Z" fill="var(--bs-dark)" stroke-width="0"/>
</svg>
